X: 11474
T: Echoes Of Killarney
R: slide
M: 12/8
K: Gmajor
|:BA|G2 D G2 A B2 e ege|d2 B BAB d2 B ABA|
G3 G2 A B2 e ege|1 d2 B ABA GAG G2:|2 d2 B ABA GAG GBd:|
|:g2 f e2 d e2 f gfe|d2 B BAB d2 B A2 d|
g2 f e2 d e2 f gfe|1 d2 B ABA GAG GBd:|2 d2 B ABA GAG G2:|

